packages/core/assets/Icons/water.svg

<svg viewBox="0 0 20 20" fill="none" xmlns="http://www.w3.org/2000/svg">
<path d="M4.43734 14.1666C4.03456 14.1666 3.74289 14.2535 3.56234 14.4271C3.38178 14.6007 3.13178 14.7222 2.81234 14.7916C2.49289 14.8611 2.22206 14.8298 1.99984 14.6979C1.77762 14.566 1.6665 14.368 1.6665 14.1041C1.6665 13.8958 1.75678 13.6944 1.93734 13.5C2.11789 13.3055 2.40262 13.1111 2.7915 12.9166C2.86095 12.875 3.04498 12.7951 3.34359 12.6771C3.6422 12.559 4.03456 12.5 4.52067 12.5C5.28456 12.5 5.79845 12.6389 6.06234 12.9166C6.32623 13.1944 6.71511 13.3333 7.229 13.3333C7.74289 13.3333 8.12831 13.1944 8.38525 12.9166C8.6422 12.6389 9.17345 12.5 9.979 12.5C10.7846 12.5 11.3297 12.6389 11.6144 12.9166C11.8991 13.1944 12.2984 13.3333 12.8123 13.3333C13.3262 13.3333 13.7012 13.1944 13.9373 12.9166C14.1734 12.6389 14.6873 12.5 15.479 12.5C15.7984 12.5 16.1075 12.5382 16.4061 12.6146C16.7047 12.691 17.0068 12.8055 17.3123 12.9583C17.6596 13.1389 17.9165 13.3264 18.0832 13.5208C18.2498 13.7153 18.3332 13.9097 18.3332 14.1041C18.3332 14.368 18.2221 14.566 17.9998 14.6979C17.7776 14.8298 17.5068 14.8611 17.1873 14.7916C16.8679 14.7222 16.6144 14.6007 16.4269 14.4271C16.2394 14.2535 15.9512 14.1666 15.5623 14.1666C15.0484 14.1666 14.663 14.3055 14.4061 14.5833C14.1491 14.8611 13.6179 15 12.8123 15C12.0068 15 11.4616 14.8611 11.1769 14.5833C10.8922 14.3055 10.4929 14.1666 9.979 14.1666C9.46511 14.1666 9.0797 14.3055 8.82275 14.5833C8.56581 14.8611 8.02761 15 7.20817 15C6.38873 15 5.854 14.8611 5.604 14.5833C5.354 14.3055 4.96511 14.1666 4.43734 14.1666ZM4.43734 10.8333C4.04845 10.8333 3.76025 10.9201 3.57275 11.0937C3.38525 11.2673 3.13178 11.3889 2.81234 11.4583C2.49289 11.5278 2.22206 11.4965 1.99984 11.3646C1.77762 11.2326 1.6665 11.0347 1.6665 10.7708C1.6665 10.5625 1.75678 10.3611 1.93734 10.1666C2.11789 9.9722 2.40262 9.77776 2.7915 9.58331C2.86095 9.54165 3.04498 9.46179 3.34359 9.34373C3.6422 9.22567 4.03456 9.16665 4.52067 9.16665C5.28456 9.16665 5.79845 9.30554 6.06234 9.58331C6.32623 9.86109 6.71511 9.99998 7.229 9.99998C7.74289 9.99998 8.12831 9.86109 8.38525 9.58331C8.6422 9.30554 9.17345 9.16665 9.979 9.16665C10.7846 9.16665 11.3297 9.30554 11.6144 9.58331C11.8991 9.86109 12.2915 9.99998 12.7915 9.99998C13.2915 9.99998 13.6665 9.86109 13.9165 9.58331C14.1665 9.30554 14.6804 9.16665 15.4582 9.16665C15.9443 9.16665 16.3366 9.22567 16.6353 9.34373C16.9339 9.46179 17.1179 9.54165 17.1873 9.58331C17.5901 9.79165 17.8818 9.98956 18.0623 10.1771C18.2429 10.3646 18.3332 10.5625 18.3332 10.7708C18.3332 11.0347 18.2186 11.2326 17.9894 11.3646C17.7603 11.4965 17.4859 11.5278 17.1665 11.4583C16.8471 11.3889 16.5971 11.2673 16.4165 11.0937C16.2359 10.9201 15.9512 10.8333 15.5623 10.8333C15.0484 10.8333 14.663 10.9722 14.4061 11.25C14.1491 11.5278 13.6179 11.6666 12.8123 11.6666C12.0068 11.6666 11.4616 11.5278 11.1769 11.25C10.8922 10.9722 10.4929 10.8333 9.979 10.8333C9.46511 10.8333 9.08664 10.9722 8.84359 11.25C8.60053 11.5278 8.06928 11.6666 7.24984 11.6666C6.43039 11.6666 5.88525 11.5278 5.61442 11.25C5.34359 10.9722 4.95123 10.8333 4.43734 10.8333ZM4.43734 7.49998C4.04845 7.49998 3.76025 7.58679 3.57275 7.7604C3.38525 7.93401 3.13178 8.05554 2.81234 8.12498C2.49289 8.19442 2.22206 8.16317 1.99984 8.03123C1.77762 7.89929 1.6665 7.70137 1.6665 7.43748C1.6665 7.22915 1.75678 7.02776 1.93734 6.83331C2.11789 6.63887 2.40262 6.44442 2.7915 6.24998C2.86095 6.20831 3.04498 6.12845 3.34359 6.0104C3.6422 5.89234 4.03456 5.83331 4.52067 5.83331C5.28456 5.83331 5.79845 5.9722 6.06234 6.24998C6.32623 6.52776 6.71511 6.66665 7.229 6.66665C7.74289 6.66665 8.12831 6.52776 8.38525 6.24998C8.6422 5.9722 9.17345 5.83331 9.979 5.83331C10.7846 5.83331 11.3297 5.9722 11.6144 6.24998C11.8991 6.52776 12.2915 6.66665 12.7915 6.66665C13.2915 6.66665 13.6665 6.52776 13.9165 6.24998C14.1665 5.9722 14.6804 5.83331 15.4582 5.83331C15.9443 5.83331 16.3366 5.89234 16.6353 6.0104C16.9339 6.12845 17.1179 6.20831 17.1873 6.24998C17.5901 6.45831 17.8818 6.65623 18.0623 6.84373C18.2429 7.03123 18.3332 7.22915 18.3332 7.43748C18.3332 7.70137 18.2186 7.89929 17.9894 8.03123C17.7603 8.16317 17.4859 8.19442 17.1665 8.12498C16.8471 8.05554 16.5971 7.93401 16.4165 7.7604C16.2359 7.58679 15.9512 7.49998 15.5623 7.49998C15.0484 7.49998 14.663 7.63887 14.4061 7.91665C14.1491 8.19442 13.6179 8.33331 12.8123 8.33331C12.0068 8.33331 11.4616 8.19442 11.1769 7.91665C10.8922 7.63887 10.4929 7.49998 9.979 7.49998C9.46511 7.49998 9.08664 7.63887 8.84359 7.91665C8.60053 8.19442 8.06928 8.33331 7.24984 8.33331C6.43039 8.33331 5.88525 8.19442 5.61442 7.91665C5.34359 7.63887 4.95123 7.49998 4.43734 7.49998Z" fill="currentColor"/>
</svg>

<svg xmlns="http://www.w3.org/2000/svg" width="20" height="20" fill="none" viewBox="0 0 20 20">
  <path fill="#201F1F" d="M4.437 14.167c-.402 0-.694.087-.875.26-.18.174-.43.295-.75.365s-.59.038-.812-.094a.647.647 0 0 1-.333-.594c0-.208.09-.41.27-.604.18-.194.466-.389.855-.583.069-.042.253-.122.552-.24.298-.118.69-.177 1.177-.177.764 0 1.277.139 1.541.417.264.277.653.416 1.167.416s.9-.139 1.156-.416c.257-.278.788-.417 1.594-.417s1.35.139 1.635.417c.285.277.684.416 1.198.416.514 0 .89-.139 1.125-.416.236-.278.75-.417 1.542-.417.32 0 .629.038.927.115.299.076.6.19.906.343.348.18.604.368.771.563.167.194.25.389.25.583a.647.647 0 0 1-.333.594c-.222.132-.493.163-.813.094-.32-.07-.573-.191-.76-.365-.188-.173-.476-.26-.865-.26-.514 0-.899.139-1.156.416-.257.278-.788.417-1.594.417-.805 0-1.35-.139-1.635-.417-.285-.277-.684-.416-1.198-.416-.514 0-.9.139-1.156.416-.257.278-.795.417-1.615.417s-1.354-.139-1.604-.417c-.25-.277-.639-.416-1.167-.416Zm0-3.334c-.389 0-.677.087-.864.26-.188.174-.441.296-.76.365-.32.07-.59.038-.813-.093a.647.647 0 0 1-.333-.594c0-.209.09-.41.27-.604.18-.195.466-.39.855-.584.069-.041.253-.121.552-.24.298-.117.69-.176 1.177-.176.764 0 1.277.139 1.541.416.264.278.653.417 1.167.417s.9-.139 1.156-.417c.257-.277.788-.416 1.594-.416s1.35.139 1.635.416c.285.278.677.417 1.177.417s.875-.139 1.125-.417c.25-.277.764-.416 1.542-.416.486 0 .879.059 1.177.177.299.118.483.198.552.24.403.208.695.406.875.593.18.188.271.386.271.594a.643.643 0 0 1-.344.594c-.229.131-.503.163-.823.093-.319-.07-.569-.19-.75-.364-.18-.174-.465-.26-.854-.26-.514 0-.899.138-1.156.416-.257.278-.788.417-1.594.417-.805 0-1.35-.14-1.635-.417-.285-.278-.684-.417-1.198-.417-.514 0-.892.14-1.135.417-.243.278-.775.417-1.594.417-.82 0-1.365-.14-1.636-.417-.27-.278-.663-.417-1.177-.417Zm0-3.333c-.389 0-.677.087-.864.26-.188.174-.441.296-.76.365-.32.07-.59.038-.813-.094a.647.647 0 0 1-.333-.594c0-.208.09-.41.27-.604.18-.194.466-.389.855-.583.069-.042.253-.122.552-.24.298-.118.69-.177 1.177-.177.764 0 1.277.14 1.541.417.264.278.653.417 1.167.417s.9-.14 1.156-.417c.257-.278.788-.417 1.594-.417s1.35.14 1.635.417c.285.278.677.417 1.177.417s.875-.14 1.125-.417c.25-.278.764-.417 1.542-.417.486 0 .879.06 1.177.177.299.118.483.198.552.24.403.208.695.406.875.594.18.187.271.385.271.593a.643.643 0 0 1-.344.594c-.229.132-.503.163-.823.094-.319-.07-.569-.191-.75-.365-.18-.173-.465-.26-.854-.26-.514 0-.899.139-1.156.417-.257.277-.788.416-1.594.416-.805 0-1.35-.139-1.635-.416-.285-.278-.684-.417-1.198-.417-.514 0-.892.139-1.135.417-.243.277-.775.416-1.594.416-.82 0-1.365-.139-1.636-.416-.27-.278-.663-.417-1.177-.417Z"/>
</svg>
